X:8
T:Sandy Grant
T:From Harp and Claymore
C: J. Scott Skinner
R: reel
M:2/4
L:1/16
Z: Jason R. Fruit <JasonFruit@gmail.com>
K:D
G | FDFA dAFA | (!<(!B=c)G!<)!=F !>(!E"_# in ms"=CG!>)!E | FDFA dABG | AFGE FDDG | FDFA dAFA|
(B=c)G=F E"_# in ms"=CGE | FDFA dABg | fdec dDD || g| fdad fgad | cAeA cdeg |
fdad fgaf | gfea fddg | fdad fgad | cAeA cdeg | !>!fdec dABG | AFGE FDD |]

